X: 50
T:Salamanca Reel, The
M:C|
L:1/8
R:Reel
K:D
dB[|:AD (3FED AD (3FED|Adcd fedc|BE~E2 BE~E2|Beed (3Bcd eg|!
fB~B2 fB~B2|f2ef dfag|fdec dBAG|1FAEF D3B:|2FAEF D3f|!
|:afdg bgeg|fdcd BAFB|Adce defg|a2gb a2fg|!
~a3f ~g3e|~f3e dfag|fdef dBAG|1FAEF D3f:|2FAEF D3B|]!
